X:1
T:Title
%%score 1 2
L:1/8
Q:1/4=88
M:6/8
K:C
V:1 treble nm="Grand Piano, Soprano"
V:2 bass nm="Choir Pad, Tell About Jesus Today"
V:1
 [EG][Ge][Fd] [Fd][Ec][EA] | [EG]E[EA] [EG]3 | [FG][FB][FB] [FB][FA][FG] | [EG][Ec][Ge] [Fd]3 | %4
w: By~W.~O.~Carroll * * * * *||||
 [Ec][Ge][Fd] [Fd][Ec][EA] | [EG][_E^F][=EG] [EA]3 | [Af]>[Ge][Fd] [Ec][Fd][FB] | %7
w: |||
 [Ec]3- [Ec]3/2 z/ [EG] | [Ge]>[Fd][Ec] [EG][_E^F][=EG] | [EA]6 | [Af]>[Ge][Fd] [Ec][Fd][Ge] | %11
w: ||||
 [Fd]3- [Fd]3/2 z/ [FG] | [EG][Ec][Fd] [Ge][Ec][GB] | [FA][FA][Fc] [^Fd]2 [Dc] | %14
w: |||
 [DB]>[DA][DG] [FG][FB][Fd] | [Ec]6- | [Ec]3 z3 |] %17
w: |||
V:2
 [C,C][C,C][C,C] [C,C][C,C][C,C] | [C,C][C,G,][C,C] [C,C]3 | [G,B,][G,D][G,D] [A,D][G,C][G,B,] | %3
 [C,C][C,C][C,C] [G,B,]3 | [C,C][C,C][C,C] [C,C][C,C][C,C] | CCC [A,C]3 | %6
 [F,C]>[F,C][F,C] [G,C][G,B,][G,D] | [C,C]3- [C,C]3/2 z/ [C,C] | [C,C]>[C,C][C,C][K:treble] CCC | %9
 [A,C]2 [A,C][K:bass] .[A,C]3 | [F,C]>[F,C][F,C] [C,C][C,C][C,C] | [G,B,]2 [G,B,] [G,B,]2 [G,B,] | %12
 [C,C][C,C][C,C] [C,C][C,C][E,C] | [F,C][F,C][F,A,] [D,A,]2 [^F,A,] | G,>[G,C][G,B,] [G,B,]G,G, | %15
 [C,G,]6- | [C,G,]3 z3 |] %17

